X: 20582
T: John O'Dwyer Of The Glen
R: hornpipe
M: 4/4
K: Adorian
|:de|f2 ~g2 abag|fd (3ed^c dcde|fd (3cAG A2 AB|
cBcd ed (3cAG|Ad (3cAF G2 (3GFG|A2 AG A2:|
|:AB|cBAB cdef|g2 (3gfg a2 ag|ab (3agf g2 ag|
fefg abag|(3fed e^c dcde|fd (3cAG A2 de|
f2 ~g2 abag|fd (3ed^c dcde|fd (3cAG A2 AB|
cBcd ed (3cAG|Ad (3cAF G2 (3GFG|A2 (3AGA A2:|

